X:408
T:
R:polska
S:Uppt. efter »Florsen» i Burs.
O:Gotland, Burs
M:3/4
L:1/16
K:D
LF4 LG4 LA4|B2 c2 d2 A2 F2 D2|F4 G4 A4|B2 c2 d4 z2:|
w:Nå, nå, nå kum-mar kou-nar haim, u kon-stäu-ten kum-mar mä.
|:f2|f3 e e3 c A2 f2|f3 e e2 c2 A2 G2|F4 G4 A4|B2 c2 d4 z2:|
w:Di kum-mar lau-pä-näs, du kum-mar träk-kä-näs, u kou-stäu-ten kum-mar mä.

